!!!COM: Grieg, Edvard
!!!CDT: 1843/06/15/-1907/09/04/
!!!OPR: Lyric Pieces
!!!OPS: Op. 43
!!!ONM: No. 5
!!!OTL@@NO: Erotikon
!!!OTL@EN: Erotic Poem
!!!OTL@DE: Erotik
!!!OTL@FR: Po&egrave;me &eacute;rotique
!!!ODT: 1886///
!!!OMD: Lento molto
**kern	**kern	**dynam
*staff2	*staff1	*staff1
*Ipiano	*Ipiano	*Ipiano
*clefF4	*clefG2	*clefG2
*k[b-]	*k[b-]	*k[b-]
*F:	*F:	*F:
*M2/4	*M2/4	*M2/4
*MM40	*MM40	*MM40
=1-	=1-	=1-
*^	*^	*
(4A/	2FF\ 2C\	(8ff/L	4.f\	p
.	.	16dd/L	.	.
.	.	16ee/JJ	.	.
4G/)	.	4cc/)	.	.
.	.	.	&(8e\&)	.
=2	=2	=2	=2	=2
(4A/	2FF\ 2C\	16ff/LL	(4.f\	.
.	.	16dd/	.	.
.	.	16ff/	.	.
.	.	eeq\LL	.	.
.	.	ffq\JJ	.	.
.	.	16ee/JJ	.	.
4G/)	.	&(4cc/&)	.	.
.	.	.	8e\)	.
*v	*v	*	*	*
=3	=3	=3	=3
4BB-\ 4F\ 4d\	(8ff/L	4f\ 4b-\	.
.	16ee/L	.	.
.	16dd/JJ	.	.
8AA/ 8F/L	16cc/LL	8c\L	.
.	16f/	.	.
8DD/ 8D/J	16c/ 16cc/	8f\J	.
.	16B-/ 16b-/JJ	.	.
=4	=4	=4	=4
2CC/ 2C/	8a/	2B-\ 2e\	.
.	4g/	.	.
.	8a/)	.	.
=5	=5	=5	=5
*^	*	*	*
4r	4DD/ 4D/	8B-/ (8b-/L	4f\	.
.	.	16e/ 16ee/L	.	.
.	.	16d/ 16dd/JJ	.	.
8r	4EE\ 4E\	8.c/ 8.cc/L	4g\	.
8c#/	.	.	.	.
.	.	16B-/ 16b-/Jk	.	.
=6	=6	=6	=6	=6
16G#/LL	4FF\ 4F\	16g#/LL	4d\	<
16A/JJ	.	16a/JJ	.	.
8r	.	24f/ 24ff/LL	.	.
.	.	24e/ 24ee/	.	.
.	.	24d/ 24dd/JJ	.	.
4r	8GGn/ 8Gn/L	8.c/ 8.cc/L	4d\ 4f\	.
.	8GG#/ 8G#/J	.	.	.
.	.	16B-/ 16b-/Jk)	.	.
=7	=7	=7	=7	=7
2AA\	8AA/L	16G#/ (16g#/LL	4F\ 4d\	.
.	.	16A/ 16a/	.	.
.	8FF/J	16c#/ 16cc#/	.	<
.	.	16d/ 16dd/JJ	.	.
.	8EE/ 8E/L	16e/ 16ee/LL	8a\ 8dd\L	.
.	.	16f/ 16ff/	.	.
.	8DD/ 8D/J	16ccn/ 16cccn/	8ff\J	.
.	.	16a/ 16aa/JJ	.	.
=8	=8	=8	=8	=8
4GG/ 4D/ 4G/	4r	4f/ 4g/ 4gg/	8c\ 8cc\L	.
.	.	.	8Bn\ 8bn\J	.
8G/L	4C\	4cc/)	4c\ 4e\	.
8G#/J	.	.	.	.
=9	=9	=9	=9	=9
(4A/	2FF\ 2C\	8ff/L	(4.f\	pp
.	.	16dd/L	.	.
.	.	16ee/JJ	.	.
4Gn/)	.	&(4cc/&)	.	.
.	.	.	8e\)	.
=10	=10	=10	=10	=10
(4A/	2FF\ 2C\	16ff/LL	(4.f\	.
.	.	16dd/	.	.
.	.	16ff/	.	.
.	.	eeq\LL	.	.
.	.	ffq\JJ	.	.
.	.	16ee/JJ	.	.
4G/)	.	&(4cc/&)	.	.
.	.	.	8e\)	.
*v	*v	*	*	*
=11	=11	=11	=11
4BB-\ 4F\ 4d\	(8ff/L	4f\ 4b-\	.
.	16ee/L	.	.
.	16dd/JJ	.	.
8AA/ 8F/L	16cc/LL	8c\L	.
.	16f/	.	.
8DD/ 8D/J	16c/ 16cc/	8f\J	.
.	16B-/ 16b-/JJ	.	.
=12	=12	=12	=12
2CC/ 2C/	8a/	2B-\ 2e\	.
.	4g/	.	.
.	8a/)	.	.
=13	=13	=13	=13
*^	*	*	*
4r	4DD/ 4D/	8B-/ (8b-/L	4f\	pp
.	.	16e/ 16ee/L	.	.
.	.	16d/ 16dd/JJ	.	.
8r	4EE\ 4E\	8.c/ 8.cc/L	4g\	.
8c#/	.	.	.	.
.	.	16B-/ 16b-/Jk	.	.
*v	*v	*	*	*
=14	=14	=14	=14
4FF\ 4F\	16G#/ 16g#/LL	4d\	.
.	16A/ 16a/JJ	.	.
.	24f/ 24ff/LL	.	.
.	24e/ 24ee/	.	.
.	24d/ 24dd/JJ	.	.
8GG/ 8Gn/L	8.c/ 8.cc/L	4d\ 4f\	.
8GG#/ 8G#/J	.	.	.
.	16B-/ 16b-/Jk)	.	.
=15	=15	=15	=15
*^	*	*	*
2AA\	8AA/L	16G#/ (16g#/LL	4F\ 4d\	.
.	.	16A/ 16a/	.	.
.	8FF/J	16c#/ 16cc#/	.	<
.	.	16d/ 16dd/JJ	.	.
.	8EE/ 8E/L	16e/ 16ee/LL	8a\ 8dd\L	.
.	.	16f/ 16ff/	.	.
.	8DD/ 8D/J	16ccn/ 16cccn/	8ff\J	.
.	.	16a/ 16aa/JJ	.	.
*v	*v	*	*	*
=16	=16	=16	=16
4GG/ 4D/ 4G/	4f/ 4g/ 4gg/	8c\ 8cc\L	.
.	.	8Bn\ 8bn\J	.
4C\ 4G\	4cc/)	4c\ 4e\	p
=17	=17	=17	=17
(8CC/ 8C/L	4r	4r	.
16AAA/ 16AA/L	.	.	.
16BBB-/ 16BB-/JJ	.	.	.
4GGG/) 4GG/ 4B-/	(8.b-/L	8d\L	.
.	.	8d#\J	.
.	16a/Jk)	.	.
=18	=18	=18	=18
*^	*	*	*
4r	4CC/ 4C/	4B-\ 4e\	16a/LL	.
.	.	.	16g/	.
.	.	.	16e/	.
.	.	.	16c/JJ	.
16A/LL	8.r	4r	4r	.
16G/	.	.	.	.
16E/	.	.	.	.
16GG/JJ	16GG\	.	.	.
*v	*v	*	*	*
=19	=19	=19	=19
(16CC/ 16C/LL	4r	4r	.
16AAA/ 16AA/	.	.	.
16CC/ 16C/	.	.	.
16BBB-/ 16BB-/JJ	.	.	.
4GGG/) 4GG/	16B-/ (16b-/LK	8g\L	<
.	8e/ 8ee/	.	.
.	.	8f\ 8b-\J	.
.	16d/ 16dd/Jk)	.	.
=20	=20	=20	=20
*^	*	*	*
4r	4CC/ 4C/ 4B-/	16a/LL	4c/ 4e/ 4cc/	>
.	.	16g/	.	.
.	.	16e/	.	.
.	.	16c/JJ	.	.
16A/LL	8.r	4r	4r	.
16G/	.	.	.	.
16E/	.	.	.	.
16GG/JJ	[16GG\	.	.	.
*v	*v	*	*	*
=21	=21	=21	=21
8GGG/ 8GG/]	8r	16r	p
.	.	16G\ 16B-\LL	.
4D\	(4d/	16G\ 16B-\	.
.	.	16G\ 16B-\JJ	.
.	.	16G\ 16B-\LK	.
.	.	8G\ 8B-\	.
16.C#/LL	16.c#/LL	.	.
.	.	16G\ 16B-\Jk	.
32D/JJk	32d/JJk	.	.
=22	=22	=22	=22
4.G\	4.g/	16r	.
.	.	16B-\ 16d\LL	.
.	.	16B-\ 16d\	.
.	.	16B-\ 16d\JJ	.
.	.	16B-\ 16d\LK	.
.	.	8B-\ 8d\	.
&(8G-\&)	8g-/)	.	.
.	.	16B-\ 16d\Jk	.
=23	=23	=23	=23
8DD'/ 8D'/	8r	16r	.
.	.	16B-\ 16d\LL	<
4F\	(4f/	16B-\ 16d\	.
.	.	16B-\ 16d\JJ	.
.	.	16B-\ 16d\LK	.
.	.	8B-\ 8d\	.
16.E\LL	16.e/LL	.	.
.	.	16B-\ 16d\Jk	.
32F\JJk	32f/JJk	.	.
=24	=24	=24	=24
4.B-\	4.b-/	16r	.
.	.	16d\ 16f\LL	.
.	.	16d\ 16f\	.
.	.	16d\ 16f\JJ	.
.	.	16d\ 16f\LK	.
.	.	8d\ 8f\	.
&(8A\&)	8a/)	.	.
.	.	16d\ 16f\Jk	.
=25	=25	=25	=25
8FF'/ 8F'/	8r	16r	.
.	.	16d-\ 16f\LL	.
(4A-\	(4a-/	16d-\ 16f\	.
.	.	16d-\ 16f\JJ	.
.	.	16d-\ 16f\LK	.
.	.	8d-\ 8f\	.
16.G\LL	16.g/LL	.	.
.	.	16d-\ 16f\Jk	.
32A-\JJk)	32a-/JJk)	.	.
=26	=26	=26	=26
8EE'/ 8E'/	8r	16r	.
.	.	16c#\ 16g\LL	.
(4An\	(4an/	16c#\ 16g\	.
.	.	16c#\ 16g\JJ	.
.	.	16c#\ 16g\LK	.
.	.	8c#\ 8g\	.
16.G#\LL	16.g#/LL	.	.
.	.	16c#\ 16gn\Jk	.
32A\JJk)	32a/JJk)	.	.
=27	=27	=27	=27
8EE-/ 8E-/	8r	16r	.
.	.	16c#\ 16g\LL	f
(4B-\	(4b-/	16c#\ 16g\	.
.	.	16c#\ 16g\JJ	.
.	.	16c#\ 16g\LK	.
.	.	8c#\ 8g\	.
16.A\LL	16.a/LL	.	.
.	.	16c#\ 16g\Jk	.
32B-\JJk)	32b-/JJk)	.	.
=28	=28	=28	=28
*^	*	*	*
4.r	8DD/ 8D/	8r	16r	.
.	.	.	16f\ 16g\LL	.
.	[4Bn\	(4bn/	16f\ 16g\	.
.	.	.	16f\ 16g\JJ	.
.	.	.	16f\ 16g\LK	.
.	.	.	8f\ 8g\	.
8B/	16B\LL]	8ff/)	.	.
.	16DD-\ 16D-\JJ	.	16f\ 16g\Jk	.
=29	=29	=29	=29	=29
4CC/ 4C/ 4A/ 4c/	4r	(8ff/L	32f\ 32a\LLK	p
.	.	.	16f\ 16a\	.
.	.	.	16f\ 16a\	.
.	.	16dd/L	.	.
.	.	.	16f\ 16a\	.
.	.	16ee/JJ	.	.
.	.	.	32f\ 32a\JJk	.
(8f/L	4G\ 4B-\	4cc/)	32r	.
.	.	.	16g\ 16b-\LL	.
.	.	.	16g\ 16b-\	.
16d/L	.	.	.	.
.	.	.	16g\ 16b-\	.
16e/JJ)	.	.	.	.
.	.	.	32g\ 32b-\JJk	.
=30	=30	=30	=30	=30
8A/ 8c/L	4C\	(16ff/LL	32r	.
.	.	.	16f\ 16a\LL	.
.	.	16dd/	.	.
.	.	.	16f\ 16a\	.
8B-/ 8d/J	.	16ff/	.	.
.	.	.	16f\ 16b-\	.
.	.	ffq\LL	.	.
.	.	ggq\JJ	.	.
.	.	16ee/JJ	.	.
.	.	.	32f\ 32b-\JJk	.
(16f/LL	4G\ 4B-\	4cc/)	32r	.
.	.	.	16g\ 16b-\LL	.
16d/	.	.	.	.
.	.	.	16g\ 16b-\	.
16f/	.	.	.	.
.	.	.	16g\ 16b-\	.
eq\LL	.	.	.	.
fq\JJ	.	.	.	.
16e/JJ)	.	.	.	.
.	.	.	32g\ 32b-\JJk	.
=31	=31	=31	=31	=31
8f/L	4BB-\ 4F\ 4d\	(8ff/L	32r	>
.	.	.	16b-\ 16dd\LL	.
.	.	.	16b-\ 16dd\	.
16e/L	.	16ee/L	.	.
.	.	.	16f\ 16b-\	.
16d/JJ	.	16dd/JJ	.	.
.	.	.	32f\ 32b-\JJk	.
16c/LL	8AA\L	16cc/LL	32r	.
.	.	.	16c\ 16f\LL	.
16F/	.	16f/)	.	.
.	.	.	32F\ 32c\JJk	.
16c/	8DD\ 8D\J	(16cc/	32r	.
.	.	.	16c\ 16f\LL	.
16B-/JJ	.	16b-/JJ)	.	.
.	.	.	32B-\ 32f\JJk	.
=32	=32	=32	=32	=32
8r	8r	8r	8r	.
(4A/	4.CC\ 4.C\	(4a/	4.B-\ 4.e\	>
8G/)	.	8g/)	.	.
*v	*v	*	*	*
*	*v	*v	*
*	*clefF4	*clefF4
=33	=33	=33
*	*^	*
4DD/ (4D/	(8f/L	4F\ 4A\	p
.	16d/L	.	.
.	16e/JJ	.	.
&(4AAA/&) 4AA/)	4A/ 4c/)	(8F\L	.
.	.	16D\L	.
.	.	16E\JJ)	.
=34	=34	=34	=34
4DD/ (4D/	(16f/LL	4F\ 4A\	.
.	16d/	.	.
.	16f/	.	.
.	eq\LL	.	.
.	fq\JJ	.	.
.	16e/JJ)	.	.
&(4AAA/&) 4AA/)	4A/ 4c/	(16F\LL	.
.	.	16D\	.
.	.	16F\	.
.	.	Eq/LL	.
.	.	Fq/JJ	.
.	.	16E\JJ)	.
=35	=35	=35	=35
16r	(8f/L	16r	.
(16CC/ 16C/LL	.	16F\ 16A\LK	.
16BBBn/ 16BBn/	16e/L	8E\ 8G#\J	.
16BBB-/ 16BB-/JJ	16d/JJ)	.	.
8AAA/ 8AA/L	(16c/LL	16E\ 16A\LL	.
.	16Gn/	16E-\	.
16DDD/ 16DD/L	16c/	16D\ 16F#\	.
16GGG/) 16GG/JJ	16B-/JJ)	16D-\ 16Fn\JJ	.
=36	=36	=36	=36
(4CCC/ 4CC/	4En/ (4A/	8C\L	pp
.	.	8BB-\J	.
4FFF/) 4CC/	4F/)	4AA\	.
*	*v	*v	*
==	==	==
*-	*-	*-
!!!ENC: Craig Stuart Sapp
!!!END: 2008/02/27/
